Numix/16x16/status/user-offline-panel.svg

<?xml version="1.0" encoding="UTF-8" standalone="no"?>
<svg
   xmlns:dc="http://purl.org/dc/elements/1.1/"
   xmlns:cc="http://creativecommons.org/ns#"
   xmlns:rdf="http://www.w3.org/1999/02/22-rdf-syntax-ns#"
   xmlns:svg="http://www.w3.org/2000/svg"
   xmlns="http://www.w3.org/2000/svg"
   xmlns:sodipodi="http://sodipodi.sourceforge.net/DTD/sodipodi-0.dtd"
   xmlns:inkscape="http://www.inkscape.org/namespaces/inkscape"
   width="16"
   height="16"
   viewBox="0 0 16 16"
   id="svg3041"
   version="1.1"
   inkscape:version="0.48.5 r10040"
   sodipodi:docname="user-offline-panel.svg">
  <metadata
     id="metadata3053">
    <rdf:RDF>
      <cc:Work
         rdf:about="">
        <dc:format>image/svg+xml</dc:format>
        <dc:type
           rdf:resource="http://purl.org/dc/dcmitype/StillImage" />
      </cc:Work>
    </rdf:RDF>
  </metadata>
  <defs
     id="defs3051" />
  <sodipodi:namedview
     pagecolor="#ffffff"
     bordercolor="#666666"
     borderopacity="1"
     objecttolerance="10"
     gridtolerance="10"
     guidetolerance="10"
     inkscape:pageopacity="0"
     inkscape:pageshadow="2"
     inkscape:window-width="688"
     inkscape:window-height="480"
     id="namedview3049"
     showgrid="false"
     inkscape:zoom="14.75"
     inkscape:cx="8"
     inkscape:cy="8"
     inkscape:window-x="0"
     inkscape:window-y="0"
     inkscape:window-maximized="0"
     inkscape:current-layer="svg3041" />
  <path
     inkscape:connector-curvature="0"
     id="path3047"
     d="m 7.601562,2.910156 c -3.3125,0 -6,2.441406 -6,5.453125 0,3.011719 2.6875,5.453125 6,5.453125 1.570313,0 3.003907,-0.550781 4.074219,-1.453125 l 4.324219,0 -2.675781,-2.433593 c 0.167969,-0.496094 0.277343,-1.015626 0.277343,-1.566407 0,-3.011719 -2.691406,-5.453125 -6,-5.453125 z m -1.75,2.90625 1.75,1.636719 1.796876,-1.613281 1,0.933594 L 8.601562,8.363281 10.375,10 l -1.023438,0.910156 -1.75,-1.636718 -1.800781,1.613281 -1,-0.933594 L 6.601562,8.363281 4.824219,6.726562 z"
     style="fill:#ececec;fill-rule:evenodd;fill-opacity:1;opacity:0.4" />
</svg>

<svg width="16" xmlns="http://www.w3.org/2000/svg" height="16" viewBox="0 0 16 16" xmlns:xlink="http://www.w3.org/1999/xlink">
<g style="fill-rule:evenodd">
<path style="fill:#000;fill-opacity:.302" d="M 7.601562 3.636719 C 4.289062 3.636719 1.601562 6.078125 1.601562 9.089844 C 1.601562 12.101562 4.289062 14.546875 7.601562 14.546875 C 9.171875 14.546875 10.605469 13.992188 11.675781 13.089844 L 16 13.089844 L 13.324219 10.660156 C 13.492188 10.160156 13.601562 9.640625 13.601562 9.089844 C 13.601562 6.078125 10.910156 3.636719 7.601562 3.636719 Z M 5.851562 6.546875 L 7.601562 8.183594 L 9.398438 6.566406 L 10.398438 7.5 L 8.601562 9.089844 L 10.375 10.726562 L 9.351562 11.636719 L 7.601562 10 L 5.800781 11.613281 L 4.800781 10.683594 L 6.601562 9.089844 L 4.824219 7.453125 Z "/>
<path style="fill:#dcdcdc" d="M 7.601562 2.910156 C 4.289062 2.910156 1.601562 5.351562 1.601562 8.363281 C 1.601562 11.375 4.289062 13.816406 7.601562 13.816406 C 9.171875 13.816406 10.605469 13.265625 11.675781 12.363281 L 16 12.363281 L 13.324219 9.929688 C 13.492188 9.433594 13.601562 8.914062 13.601562 8.363281 C 13.601562 5.351562 10.910156 2.910156 7.601562 2.910156 Z M 5.851562 5.816406 L 7.601562 7.453125 L 9.398438 5.839844 L 10.398438 6.773438 L 8.601562 8.363281 L 10.375 10 L 9.351562 10.910156 L 7.601562 9.273438 L 5.800781 10.886719 L 4.800781 9.953125 L 6.601562 8.363281 L 4.824219 6.726562 Z "/>
</g>
</svg>
